packages/ffe-icons/icons/filled/md/switch.svg

<svg xmlns="http://www.w3.org/2000/svg" height="24" viewBox="0 -960 960 960" width="24"><path d="M593.846-290.001q15.365 0 25.759-10.394t10.394-25.759v-307.692q0-15.365-10.394-25.759t-25.759-10.394H366.154q-15.365 0-25.759 10.394t-10.394 25.759v307.692q0 15.365 10.394 25.759t25.759 10.394h227.692Zm-203.847-59.998v-260.002h180.002v260.002H389.999Zm-177.69 209.998q-30.308 0-51.308-21t-21-51.308v-535.382q0-30.308 21-51.308t51.308-21h535.382q30.308 0 51.308 21t21 51.308v535.382q0 30.308-21 51.308t-51.308 21H212.309Zm267.758-343.845q15.394 0 25.74-10.414 10.347-10.414 10.347-25.808 0-15.393-10.414-25.739-10.414-10.347-25.807-10.347-15.394 0-25.74 10.414-10.347 10.414-10.347 25.808 0 15.393 10.414 25.739 10.414 10.347 25.807 10.347Z"/></svg>

<svg xmlns="http://www.w3.org/2000/svg" height="24" viewBox="0 -960 960 960" width="24"><path d="M593.85-290q15.36 0 25.76-10.39Q630-310.79 630-326.15v-307.7q0-15.36-10.39-25.76Q609.21-670 593.85-670h-227.7q-15.36 0-25.76 10.39Q330-649.21 330-633.85v307.7q0 15.36 10.39 25.76Q350.79-290 366.15-290h227.7ZM390-350v-260h180v260H390ZM212.31-140Q182-140 161-161q-21-21-21-51.31v-535.38Q140-778 161-799q21-21 51.31-21h535.38Q778-820 799-799q21 21 21 51.31v535.38Q820-182 799-161q-21 21-51.31 21H212.31Zm267.76-343.85q15.39 0 25.74-10.41 10.34-10.41 10.34-25.81 0-15.39-10.41-25.74-10.41-10.34-25.81-10.34-15.39 0-25.74 10.41-10.34 10.41-10.34 25.81 0 15.39 10.41 25.74 10.41 10.34 25.81 10.34Z"/></svg>
